X:338
T: Lustiger Jgersknecht (4-37), S. 51
N: P0598
O: Lothringen
S: 
R: Jgerlied]
M: 2/4
L: 1/16
K: G
D2 | G2G2A2A2 | d2d2G2z2 | G2E2D2z2 |
G2G2A2A2 | F2D2G2z2 |
G2B2 | d2d2d2d2e2e2 | d3BB2
d2c2c2 | A2c2B2d2 | G2
B2d2B2 | A4G2

